dist/svg/mobile-off.svg

<svg width="16" height="16" viewBox="0 0 16 16" fill="rgb(34, 34, 34)" xmlns="http://www.w3.org/2000/svg"><title>mobile-off</title><path d="M13 12V1.00002C13.004 0.968019 13.006 0.931019 13.006 0.894019C13.006 0.397019 12.603 -0.00598145 12.106 -0.00598145C12.069 -0.00598145 12.032 -0.00398144 11.995 0.00101855H11.999H3.999C3.967 -0.00298145 3.93 -0.00498145 3.893 -0.00498145C3.396 -0.00498145 2.993 0.398019 2.993 0.895019C2.993 0.932019 2.995 0.969019 3 1.00602V1.00202V2.00202L1 0.00201856L0 1.00202L15 16.002L16 15.002L13 12ZM4 2.00002H12V11L4 3.00002V2.00002ZM4 13V7.00002L3 6.00002V15C2.996 15.032 2.994 15.069 2.994 15.106C2.994 15.603 3.397 16.006 3.894 16.006C3.931 16.006 3.968 16.004 4.005 15.999H4.001H12.001C12.01 15.999 12.02 15.999 12.03 15.999C12.296 15.999 12.536 15.883 12.7 15.699L12.701 15.698L10.001 12.998L4 13ZM9 15H7V14H9V15Z" fill="rgb(34, 34, 34)" fill-opacity="1.00"/></svg>

<!-- Generated by Trend Micro Style Portal -->
<svg version="1.1" xmlns="http://www.w3.org/2000/svg" width="16" height="16" viewBox="0 0 16 16">
  <title>mobile-off</title>
  <path fill="rgb(34,34,34)" d="M13 12v-11c0.004-0.032 0.006-0.069 0.006-0.106 0-0.497-0.403-0.9-0.9-0.9-0.037 0-0.074 0.002-0.111 0.007l0.004-0h-8c-0.032-0.004-0.069-0.006-0.106-0.006-0.497 0-0.9 0.403-0.9 0.9 0 0.037 0.002 0.074 0.007 0.111l-0-0.004v1l-2-2-1 1 15 15 1-1zM4 2h8v9l-8-8zM4 13v-6l-1-1v9c-0.004 0.032-0.006 0.069-0.006 0.106 0 0.497 0.403 0.9 0.9 0.9 0.037 0 0.074-0.002 0.111-0.007l-0.004 0h8c0.009 0 0.019 0 0.029 0 0.266 0 0.506-0.116 0.67-0.3l0.001-0.001-2.7-2.7zM9 15h-2v-1h2z"></path>
</svg>
